img/logo.svg

<svg xmlns="http://www.w3.org/2000/svg" width="5.786cm" height="48">
    <path fill-rule="evenodd" d="M163.881 27.119v7.392h-21.264V.911h21.023v7.392h-13.291v5.568h12.082v7.296h-12.082v5.952h13.532zm-39.871.576c1.707 0 3.262-.368 4.664-1.104 1.401-.736 2.456-1.744 3.165-3.024l6.67 3.839c-1.45 2.401-3.464 4.297-6.041 5.689-2.579 1.392-5.397 2.088-8.458 2.088-5.059 0-9.255-1.672-12.589-5.016-3.335-3.344-5.002-7.496-5.002-12.456 0-4.96 1.667-9.112 5.002-12.456 3.334-3.344 7.53-5.016 12.589-5.016 3.028 0 5.831.696 8.409 2.088 2.578 1.392 4.607 3.288 6.09 5.687l-6.67 3.841c-.741-1.312-1.805-2.328-3.189-3.049-1.386-.719-2.933-1.079-4.64-1.079-2.996 0-5.389.912-7.177 2.736-1.788 1.824-2.682 4.24-2.682 7.248s.894 5.424 2.682 7.248c1.788 1.824 4.181 2.736 7.177 2.736zM93.853.911h7.732v33.6h-7.732V.911zm-24.26 33.6L58.574.911h8.457l7.491 24.72L82.013.911h8.458l-11.019 33.6h-9.859zM35.376.911h21.023v7.392h-13.29v5.568h12.082v7.296H43.109v5.952h13.532v7.392H35.376V.911zm-21.264 33.6H.58V.911h13.532c4.671 0 8.578 1.608 11.72 4.824 3.141 3.216 4.712 7.208 4.712 11.976 0 4.768-1.571 8.76-4.712 11.976-3.142 3.215-7.049 4.824-11.72 4.824zm6.5-23.64c-1.66-1.712-3.826-2.568-6.5-2.568H8.313v18.816h5.799c2.674 0 4.84-.856 6.5-2.568 1.659-1.712 2.489-3.992 2.489-6.84s-.83-5.128-2.489-6.84z"/>
</svg>

<?xml version="1.0" encoding="UTF-8"?>
<svg width="164px" height="36px" viewBox="0 0 164 36" version="1.1" xmlns="http://www.w3.org/2000/svg" xmlns:xlink="http://www.w3.org/1999/xlink">
    <!-- Generator: Sketch 52.5 (67469) - http://www.bohemiancoding.com/sketch -->
    <title>Artboard</title>
    <desc>Created with Sketch.</desc>
    <g id="Artboard" stroke="none" stroke-width="1" fill="none" fill-rule="evenodd">
        <path d="M163.881,27.119 L163.881,34.511 L142.617,34.511 L142.617,0.911 L163.64,0.911 L163.64,8.303 L150.349,8.303 L150.349,13.871 L162.431,13.871 L162.431,21.167 L150.349,21.167 L150.349,27.119 L163.881,27.119 Z M128.674,26.591 C130.075,25.855 131.13,24.847 131.839,23.567 L138.509,27.406 C137.059,29.807 135.045,31.703 132.468,33.095 C129.889,34.487 127.071,35.183 124.01,35.183 C118.951,35.183 114.755,33.511 111.421,30.167 C108.086,26.823 106.419,22.671 106.419,17.711 C106.419,12.751 108.086,8.599 111.421,5.255 C114.755,1.911 118.951,0.239 124.01,0.239 C127.038,0.239 129.841,0.935 132.419,2.327 C134.997,3.719 137.026,5.615 138.509,8.014 L131.839,11.855 C131.098,10.543 130.034,9.527 128.65,8.806 C127.264,8.087 125.717,7.727 124.01,7.727 C121.014,7.727 118.621,8.639 116.833,10.463 C115.045,12.287 114.151,14.703 114.151,17.711 C114.151,20.719 115.045,23.135 116.833,24.959 C118.621,26.783 121.014,27.695 124.01,27.695 C125.717,27.695 127.272,27.327 128.674,26.591 Z M93.853,0.911 L101.585,0.911 L101.585,34.511 L93.853,34.511 L93.853,0.911 Z M58.574,0.911 L67.031,0.911 L74.522,25.631 L82.013,0.911 L90.471,0.911 L79.452,34.511 L69.593,34.511 L58.574,0.911 Z M35.376,0.911 L56.399,0.911 L56.399,8.303 L43.109,8.303 L43.109,13.871 L55.191,13.871 L55.191,21.167 L43.109,21.167 L43.109,27.119 L56.641,27.119 L56.641,34.511 L35.376,34.511 L35.376,0.911 Z M0.58,34.511 L0.58,0.911 L14.112,0.911 C18.783,0.911 22.69,2.519 25.832,5.735 C28.973,8.951 30.544,12.943 30.544,17.711 C30.544,22.479 28.973,26.471 25.832,29.687 C22.69,32.902 18.783,34.511 14.112,34.511 L0.58,34.511 Z M14.112,8.303 L8.313,8.303 L8.313,27.119 L14.112,27.119 C16.786,27.119 18.952,26.263 20.612,24.551 C22.271,22.839 23.101,20.559 23.101,17.711 C23.101,14.863 22.271,12.583 20.612,10.871 C18.952,9.159 16.786,8.303 14.112,8.303 Z" id="Shape" fill="#000000" fill-rule="nonzero"></path>
    </g>
</svg>
